file/petrobras.svg

<svg clip-rule="evenodd" fill-rule="evenodd" stroke-linejoin="round" stroke-miterlimit="1.41421" viewBox="0 0 560 400" xmlns="http://www.w3.org/2000/svg"><g transform="matrix(.333158 0 0 .333158 15.5003 121.758)"><path d="m100.913 198.425h270.709v171.496h-270.709z" fill="#008542"/><path d="m100.913 99.78h270.709v65.764h-270.709z" fill="#fdc82f"/><path d="m371.055 198.425v-32.882h-270.709v32.882h52.158l-29.197 99.78h59.244c25.512 0 30.047-5.953 35.433-10.205 6.803-5.953 10.488-19.843 7.37-29.48-1.984-6.803-8.504-10.772-9.071-10.772 7.654-3.968 12.189-12.189 13.04-13.323 2.834-6.236 5.386-17.291-2.268-26.362-5.953-7.654-17.858-9.638-26.362-9.638h62.929l-28.913 100.347h29.197l10.771-38.268h17.008c11.906 0 11.055 7.653 11.339 10.772l1.133 28.063h26.93s-1.134-31.465-1.134-33.733c-.284-7.937-5.67-11.622-10.205-11.622 8.504-2.551 16.158-10.204 18.992-15.307 3.685-5.953 6.52-15.307 2.835-24.378-4.819-13.606-18.142-15.874-26.929-15.874zm-84.472 20.126h21.26c9.921 0 10.488 6.803 10.488 8.788 0 4.818-3.969 13.606-16.441 13.606h-21.544s5.953-22.11 6.237-22.394zm-121.89 37.701h19.559c9.638 0 9.921 2.268 11.339 4.819 1.417 2.268.566 6.803 0 8.504-1.418 1.701-3.119 8.22-15.591 8.22h-21.543zm10.772-37.701h22.677c4.252 0 8.504 2.835 8.504 7.37 0 6.52-5.386 11.055-12.473 11.055h-24.094z" fill="#fff" fill-rule="nonzero"/><path d="m661.89 299.055h-83.622l28.346-100.063h81.355l-6.237 23.244h-49.039l-4.252 14.457h41.669l-6.803 23.244h-41.102l-4.536 15.591h50.457zm-131.528-31.181h-5.102-16.725l-8.504 31.181h-32.881l28.346-100.063h47.906c29.196 0 39.118 13.323 33.448 33.732-5.952 20.126-20.976 33.449-46.488 35.15zm0-45.638h-8.787l-5.953 22.11h14.74c7.087-.283 12.756-3.401 15.024-11.622 2.834-9.07-7.37-10.488-14.457-10.488zm790.868 42.803h10.2l-.28-35.716-9.92 17.291-10.21 18.425zm0-62.645 2.27-3.402h33.16l7.37 100.063h-32.6v-13.039h-10.2-22.68l-7.37 13.039h-30.05-2.26l2.26-3.118 60.1-93.827zm165.83 25.795c2.55-17.858-5.96-32.032-33.74-32.032-24.94 0-46.77 10.772-52.72 32.315-10.49 37.985 50.17 27.78 45.35 42.804-1.13 4.818-7.37 7.653-15.59 7.653-3.12 0-6.23-1.134-8.5-2.551-2.27-2.268-3.4-4.535-3.12-8.221h-31.46c-4.26 18.142 8.5 33.733 34.58 33.733 27.78 0 50.46-11.339 56.69-34.866 10.77-36-49.61-26.93-45.35-41.953.85-3.685 4.82-5.669 12.19-5.669 2.83 0 5.95.567 7.65 1.7 2.27 1.418 3.4 3.402 2.83 7.087zm-225.93 1.417c.29-.85.29-1.417.57-2.267 2.27-7.37 2.27-13.607-.57-17.859-4.25-7.086-15.3-10.488-36-10.488h-10.77-36.28l-28.35 100.063h32.6l9.92-34.866h9.92c6.52 0 9.92.85 12.19 2.268 3.4 2.551 2.84 7.086.57 15.307-.28.567-.28.85-.57 1.701-2.27 7.653-2.83 13.322-2.55 15.59h33.17l.85-3.118c-3.97 0-2.27-4.252 1.41-17.575 5.67-20.126 0-22.677-9.35-26.362 11.91-3.402 19.56-11.906 23.24-22.394zm-46.77 12.756c8.51-.85 13.61-3.118 15.59-9.638 1.99-7.086-2.83-10.488-10.49-10.488h-5.1-9.92l-5.67 20.126zm-124.16 56.41c22.68-1.134 39.41-9.355 45.08-29.764 3.11-11.055 0-20.41-9.93-23.244 7.37-3.685 16.45-11.339 19-21.544 5.95-19.842-10.49-25.228-33.17-25.228h-20.98-26.92l-28.63 100.063h49.03c2.27 0 4.54 0 6.52-.283zm0-76.536h10.78c7.08 0 13.32.284 11.34 7.937-1.71 5.67-7.38 9.071-13.9 9.071h-8.22-5.1l4.54-17.008zm0 34.866c10.49 0 17.86.851 15.31 9.355-1.98 7.086-7.65 9.071-15.31 9.071h-1.7-14.17l5.39-18.426zm-117.066 18.992c9.354-3.968 16.157-14.74 19.842-27.779 3.685-13.323 2.268-28.063-12.189-27.496-2.834 0-5.385.567-7.653 1.417-10.488 4.252-16.725 15.874-19.559 26.079-3.969 12.756-4.252 29.197 11.338 29.197 2.835 0 5.67-.851 8.221-1.418zm0-77.952c4.819-1.134 9.921-1.985 14.74-1.985 35.716 0 45.356 26.079 37.986 52.158-8.22 28.346-29.199 46.488-52.726 51.874-5.103.85-9.921 1.701-15.307 1.701-31.181 0-46.772-19.559-37.134-53.859 7.653-26.362 27.496-44.787 52.441-49.889zm-115.37 85.323c0-.851.567-1.134.567-1.701 2.267-8.221 2.834-12.756-.567-15.307-1.984-1.418-5.953-2.268-11.906-2.268h-9.921l-9.921 34.866h-29.197-3.402l3.402-13.039 24.945-87.024h47.055c33.449 0 41.386 9.071 36.283 28.347-3.401 11.905-11.055 21.259-23.811 24.661 9.638 3.685 15.307 6.236 9.638 26.362-3.968 13.323-5.669 17.575-1.417 17.575l-1.134 3.118h-30.614-2.835c0-2.268.851-7.937 2.835-15.59zm0-41.103c8.504-.85 13.606-3.118 15.307-9.638 2.268-7.086-2.551-10.488-10.205-10.488h-5.102-10.205l-5.669 20.126zm-60.945-30.047 3.968-13.323h-3.968-87.874l-7.37 26.362h29.48l-20.976 73.701h32.598l20.977-73.701h29.763z" fill="#21576a"/></g></svg>

<?xml version="1.0" encoding="UTF-8" standalone="no"?>
<!DOCTYPE svg PUBLIC "-//W3C//DTD SVG 1.1//EN" "http://www.w3.org/Graphics/SVG/1.1/DTD/svg11.dtd">
<svg width="100%" height="100%" viewBox="0 0 560 400" version="1.1" xmlns="http://www.w3.org/2000/svg" xmlns:xlink="http://www.w3.org/1999/xlink" xml:space="preserve" xmlns:serif="http://www.serif.com/" style="fill-rule:evenodd;clip-rule:evenodd;stroke-linejoin:round;stroke-miterlimit:1.41421;">
    <g transform="matrix(0.333158,0,0,0.333158,15.5003,121.758)">
        <rect id="rect552" x="100.913" y="198.425" width="270.709" height="171.496" style="fill:rgb(0,133,66);"/>
        <rect id="rect554" x="100.913" y="99.78" width="270.709" height="65.764" style="fill:rgb(253,200,47);"/>
        <path id="BR" d="M371.055,198.425L371.055,165.543L100.346,165.543L100.346,198.425L152.504,198.425L123.307,298.205L182.551,298.205C208.063,298.205 212.598,292.252 217.984,288C224.787,282.047 228.472,268.157 225.354,258.52C223.37,251.717 216.85,247.748 216.283,247.748C223.937,243.78 228.472,235.559 229.323,234.425C232.157,228.189 234.709,217.134 227.055,208.063C221.102,200.409 209.197,198.425 200.693,198.425L263.622,198.425L234.709,298.772L263.906,298.772L274.677,260.504L291.685,260.504C303.591,260.504 302.74,268.157 303.024,271.276L304.157,299.339L331.087,299.339C331.087,299.339 329.953,267.874 329.953,265.606C329.669,257.669 324.283,253.984 319.748,253.984C328.252,251.433 335.906,243.78 338.74,238.677C342.425,232.724 345.26,223.37 341.575,214.299C336.756,200.693 323.433,198.425 314.646,198.425L371.055,198.425ZM286.583,218.551L307.843,218.551C317.764,218.551 318.331,225.354 318.331,227.339C318.331,232.157 314.362,240.945 301.89,240.945L280.346,240.945C280.346,240.945 286.299,218.835 286.583,218.551ZM164.693,256.252L184.252,256.252C193.89,256.252 194.173,258.52 195.591,261.071C197.008,263.339 196.157,267.874 195.591,269.575C194.173,271.276 192.472,277.795 180,277.795L158.457,277.795L164.693,256.252ZM175.465,218.551L198.142,218.551C202.394,218.551 206.646,221.386 206.646,225.921C206.646,232.441 201.26,236.976 194.173,236.976L170.079,236.976L175.465,218.551Z" style="fill:white;fill-rule:nonzero;"/>
        <path id="PETROBRAS" d="M661.89,299.055L578.268,299.055L606.614,198.992L687.969,198.992L681.732,222.236L632.693,222.236L628.441,236.693L670.11,236.693L663.307,259.937L622.205,259.937L617.669,275.528L668.126,275.528L661.89,299.055ZM530.362,267.874L525.26,267.874L508.535,267.874L500.031,299.055L467.15,299.055L495.496,198.992L543.402,198.992C572.598,198.992 582.52,212.315 576.85,232.724C570.898,252.85 555.874,266.173 530.362,267.874ZM530.362,222.236L521.575,222.236L515.622,244.346L530.362,244.346C537.449,244.063 543.118,240.945 545.386,232.724C548.22,223.654 538.016,222.236 530.929,222.236L530.362,222.236ZM1321.23,265.039L1331.43,265.039L1331.15,229.323L1321.23,246.614L1311.02,265.039L1321.23,265.039ZM1321.23,202.394L1323.5,198.992L1356.66,198.992L1364.03,299.055L1331.43,299.055L1331.43,286.016L1321.23,286.016L1298.55,286.016L1291.18,299.055L1261.13,299.055L1258.87,299.055L1261.13,295.937L1321.23,202.11L1321.23,202.394ZM1487.06,228.189C1489.61,210.331 1481.1,196.157 1453.32,196.157C1428.38,196.157 1406.55,206.929 1400.6,228.472C1390.11,266.457 1450.77,256.252 1445.95,271.276C1444.82,276.094 1438.58,278.929 1430.36,278.929C1427.24,278.929 1424.13,277.795 1421.86,276.378C1419.59,274.11 1418.46,271.843 1418.74,268.157L1387.28,268.157C1383.02,286.299 1395.78,301.89 1421.86,301.89C1449.64,301.89 1472.32,290.551 1478.55,267.024C1489.32,231.024 1428.94,240.094 1433.2,225.071C1434.05,221.386 1438.02,219.402 1445.39,219.402C1448.22,219.402 1451.34,219.969 1453.04,221.102C1455.31,222.52 1456.44,224.504 1455.87,228.189L1487.06,228.189ZM1261.13,229.606C1261.42,228.756 1261.42,228.189 1261.7,227.339C1263.97,219.969 1263.97,213.732 1261.13,209.48C1256.88,202.394 1245.83,198.992 1225.13,198.992L1214.36,198.992L1178.08,198.992L1149.73,299.055L1182.33,299.055L1192.25,264.189L1202.17,264.189C1208.69,264.189 1212.09,265.039 1214.36,266.457C1217.76,269.008 1217.2,273.543 1214.93,281.764C1214.65,282.331 1214.65,282.614 1214.36,283.465C1212.09,291.118 1211.53,296.787 1211.81,299.055L1244.98,299.055L1245.83,295.937C1241.86,295.937 1243.56,291.685 1247.24,278.362C1252.91,258.236 1247.24,255.685 1237.89,252C1249.8,248.598 1257.45,240.094 1261.13,229.606ZM1214.36,242.362C1222.87,241.512 1227.97,239.244 1229.95,232.724C1231.94,225.638 1227.12,222.236 1219.46,222.236L1214.36,222.236L1204.44,222.236L1198.77,242.362L1214.36,242.362ZM1090.2,298.772C1112.88,297.638 1129.61,289.417 1135.28,269.008C1138.39,257.953 1135.28,248.598 1125.35,245.764C1132.72,242.079 1141.8,234.425 1144.35,224.22C1150.3,204.378 1133.86,198.992 1111.18,198.992L1090.2,198.992L1063.28,198.992L1034.65,299.055L1083.68,299.055C1085.95,299.055 1088.22,299.055 1090.2,298.772ZM1090.2,222.236L1100.98,222.236C1108.06,222.236 1114.3,222.52 1112.32,230.173C1110.61,235.843 1104.94,239.244 1098.42,239.244L1090.2,239.244L1085.1,239.244L1089.64,222.236L1090.2,222.236ZM1090.2,257.102C1100.69,257.102 1108.06,257.953 1105.51,266.457C1103.53,273.543 1097.86,275.528 1090.2,275.528L1088.5,275.528L1074.33,275.528L1079.72,257.102L1090.2,257.102ZM973.134,276.094C982.488,272.126 989.291,261.354 992.976,248.315C996.661,234.992 995.244,220.252 980.787,220.819C977.953,220.819 975.402,221.386 973.134,222.236C962.646,226.488 956.409,238.11 953.575,248.315C949.606,261.071 949.323,277.512 964.913,277.512C967.748,277.512 970.583,276.661 973.134,276.094ZM973.134,198.142C977.953,197.008 983.055,196.157 987.874,196.157C1023.59,196.157 1033.23,222.236 1025.86,248.315C1017.64,276.661 996.661,294.803 973.134,300.189C968.031,301.039 963.213,301.89 957.827,301.89C926.646,301.89 911.055,282.331 920.693,248.031C928.346,221.669 948.189,203.244 973.134,198.142ZM857.764,283.465C857.764,282.614 858.331,282.331 858.331,281.764C860.598,273.543 861.165,269.008 857.764,266.457C855.78,265.039 851.811,264.189 845.858,264.189L835.937,264.189L826.016,299.055L796.819,299.055L793.417,299.055L796.819,286.016L821.764,198.992L868.819,198.992C902.268,198.992 910.205,208.063 905.102,227.339C901.701,239.244 894.047,248.598 881.291,252C890.929,255.685 896.598,258.236 890.929,278.362C886.961,291.685 885.26,295.937 889.512,295.937L888.378,299.055L857.764,299.055L854.929,299.055C854.929,296.787 855.78,291.118 857.764,283.465ZM857.764,242.362C866.268,241.512 871.37,239.244 873.071,232.724C875.339,225.638 870.52,222.236 862.866,222.236L857.764,222.236L847.559,222.236L841.89,242.362L857.764,242.362ZM796.819,212.315L800.787,198.992L796.819,198.992L708.945,198.992L701.575,225.354L731.055,225.354L710.079,299.055L742.677,299.055L763.654,225.354L793.417,225.354L796.819,212.315Z" style="fill:rgb(33,87,106);"/>
    </g>
</svg>
